X:1
T:Vivaldi's Spring but it's in Minor and I Want to Die
T:Vivaldi's Spring But It's in Minor (AKA. Vivaldi's "Puddle")
T:Arranged by David Miltreiger
T:Antonio Vivaldi
C:Antonio Vivaldi
%%score { 1 | 2 } 3 4
L:1/8
Q:1/2=110
M:2/2
K:Gb
V:1 treble nm="Piano" snm="Pno."
V:2 bass 
V:3 treble transpose=-2 nm="B♭ Trumpet" snm="B♭ Tpt."
V:4 treble transpose=-21 nm="Baritone Saxophone" snm="Bar. Sax."
V:1
 z2 | [G,B,E]8 | [G,B,E]8 | [B,EG]8 | [B,EG]8 | [EGB]4 [C-FA]2 [CEG]2 | [DF]4 z2 E2 | %7
"^7" [G,B,E]8 | [G,B,E]8 | [B,EG]8 | [B,EG]8 | [EGB]4 [C-FA]2 [CEG]2 | [DF]4 z2 E2 | [EGB]8 | %14
 .[EAc]2 !>![EGB]6 | [EGB]8 | .[EAc]2 !>![EGB]6 | [EAc]2 [EGB]6 | [B,EG]4 [B,DF]4 | %19
 [G,B,E]4 z2 E2 | [EG]2 FE F2 G2 | .[FA]2 !>!G4 [EG]2 | [EGB]2 [FA][EG] [FA]2 [GB]2 | %23
 .[Ac]2 !>![GB]4 [EG]2 | .[Ac]2 !>![GB]4 [FA]2 | [B,EG]4 [B,DF]4 | [G,B,E]6 E2 | [G,B,E]8 | %28
 [G,B,E]8 | [G,B,E]8 | [B,EG]8 | [EGB]4 [C-FA]2 [CEG]2 | [DF]4 z2 E2 | [EGB]8 | .[EAc]2 [EGB]6 | %35
 [EGB]8 | .[EAc]2 [EGB]6 | .[EAc]2 !>![EGB]6 | [B,EG]4 [B,DF]4 | [G,B,E]6 z2 | z8 |] %41
V:2
 z2 | [E,,E,]4 [E,,E,]4 | [E,,E,]4 [E,,E,]4 | [E,,E,]4 [E,,E,]4 | [E,,E,]4 [E,,E,]4 | %5
 [E,,E,]2 [E,,E,]2 [A,,A,]2 [=A,,=A,]2 | [B,,B,]4 z4 | E,4 E,4 | E,4 E,4 | E,4 E,4 | E,4 E,4 | %11
 E,2 E,2 A,2 =A,2 | B,4 z2 E,2 | [E,,E,]4 [E,,E,]4 | [E,,E,]4 [E,,E,]4 | [E,,E,]4 [E,,E,]4 | %16
 [E,,E,]4 [E,,E,]4 | [E,,E,]4 [E,,E,]2 B,,2 | [E,,E,]4 B,,4 | [E,,E,]4 z4 | E,2 z2 z4 | %21
 z2 z2 z2 B,,2 | E,2 z2 z2 B,,2 | z2 z2 z2 B,,2 | E,2 z2 z2 B,,2 | E,4 B,,2 B,,2 | E,6 E,2 | %27
 [E,,E,]4 [E,,E,]4 | [E,,E,]4 [E,,E,]4 | [E,,E,]4 [E,,E,]4 | [E,,E,]4 [E,,E,]4 | %31
 [E,,E,]2 [E,,E,]2 [A,,A,]2 [=A,,=A,]2 | B,4 z2 E,2 | [E,,E,]4 [E,,E,]4 | [E,,E,]4 [E,,E,]4 | %35
 [E,,E,]4 [E,,E,]4 | [E,,E,]4 [E,,E,]4 | [E,,E,]4 B,,4 |"_Rit." [E,,E,]4 B,,4 | [E,,E,]6 z2 | z8 |] %41
V:3
[K:Ab] E2 | A2 A2 A2 GE | c6 cB | A2 A2 A2 GF | c6 cB | A2 Bc B2 A2 | G2 E2 C2 F2 | A2 A2 A2 GF | %8
 c6 cB | A2 A2 A2 GF | c6 cB | A2 Bc B2 A2 | G4 z2 A2 | c2 BA B2 c2 | d2 c4 A2 | c2 BA B2 c2 | %16
 .d2 !>!c4 A2 | .d2 !>!c4 B2 | A2 GF TG4 | F6 A2 | c2 BA B2 c2 | .d2 !>!c4 F2 | A2 z2 z4 | %23
 z2 z2 z2 A2 | .d2 !>!c4 B2 | A2 GF TG4 | F6 F2 | A2 A2 A2 GF | c6 cB | A2 A2 A2 GF | c6 cB | %31
 A2 Bc B2 A2 | G4 z2 A2 | c2 BA B2 c2 | .d2 !>!c4 A2 | c2 BA B2 c2 | .d2 !>!c4 A2 | .d2 !>!c4 B2 | %38
 A2 GF TG4 | F6 z2 | z8 |] %41
V:4
[K:Eb] B2 | c2 c2 c4 | e8 | c2 c2 c4 | e6 ed | e4 d4 | B4 c4 | c2 c2 c4 | e8 | c2 c2 c4 | e6 d2 | %11
 Aedc G4 | c8 | c3 c- c2 G2 | e8 | c3 c- c2 G2 | e8 | e4 d4 | F4 c4 | c8 | c3 c- c2 G2 | e8 | e8 | %23
 e8 | A2 d6 | a8 | agfd ABcd | c2 c2 c4 | e8 | c2 c2 c4 | e6 ed | e4 d4 | B4 c4 | A8 | c8 | f8 | %36
 a8 | agfe defg | cdef cdef | C6 z2 | z8 |] %41

